X:1
T:7 Lieder
T:The Shepherd's Song
T:7 Lieder
T:Edward Elgar
T:7. The Shepherd's Song Des Schäfer's Lied Op. 16, No. 1 
T:Barry Pain German Lyrics by Ed. Sachs 
T:Creative Commons copyright waiver (CC0 1.0 Universal)
T:Creative Commons copyright waiver (CC0 1.0 Universal)
T:Creative Commons copyright waiver (CC0 1.0 Universal)
T:Creative Commons copyright waiver (CC0 1.0 Universal)
T:Creative Commons copyright waiver (CC0 1.0 Universal)
C:Edward Elgar
Z:Barry Pain
Z:Creative Commons copyright waiver (CC0 1.0 Universal)
%%score 1 ( 2 3 )
L:1/8
M:4/4
K:Ab
V:1 treble nm="Voice"
V:2 treble nm="Piano"
V:3 treble 
V:1
 z8 | z8 |!p! (.B .=A .B .G ._A) c (A/G/) F | z8 | z8 | z8 | z8 | z8 | z8 | z8 | z8 | z8 | z8 | %13
w: ||Down the dust- y road to- geth- * er|||||||||||
w: ||Auf dem lan- gen Weg, der stäu- * bet,|||||||||||
 z8 | z8 | z8 | z8 | z8 | z8 | z8 | z8 | z8 | z8 | z8 | z8 | z8 | z8 | z8 | z8 | z8 | z8 | z8 | %32
w: |||||||||||||||||||
w: |||||||||||||||||||
 z8 | z8 | z8 | z8 | z8 | z8 |] %38
w: ||||||
w: ||||||
V:2
 z8 | z8 | (B =A B G _A c A F | G ^F G E =F A F D) | z8 | z8 | z8 | z8 | z8 | z8 | z8 | z8 | z8 | %13
 z8 | z8 | z8 | z8 | z8 | z8 | z8 | z8 | z8 | z8 | z8 | z8 | z8 | z8 | z8 | z8 | z8 | z8 | z8 | %32
 z8 | z8 | z8 | z8 | z8 | z8 |] %38
V:3
 x8 | x8 | B/B,/=A/B,/B/B,/G/B,/_A/B,/c/B,/A/B,/F/B,/ | %3
 G/B,/^F/B,/G/B,/E/B,/=F/B,/A/B,/F/B,/D/B,/ | x8 | x8 | x8 | x8 | x8 | x8 | x8 | x8 | x8 | x8 | %14
 x8 | x8 | x8 | x8 | x8 | x8 | x8 | x8 | x8 | x8 | x8 | x8 | x8 | x8 | x8 | x8 | x8 | x8 | x8 | %33
 x8 | x8 | x8 | x8 | x8 |] %38

